X:135
T:Mick Dwyer's
M:6/8
L:1/8
K:G
GBD GBd|c2 A BAG|AFD fed|cAG FD[EC]|\
Bcd GBd|cAG FGA|dcd fed|cAF G2 D :|
GBd gfg|fag fdc|Bcd c2 A|BAG AFD|\
GBd gfg|fag fdc|Bcd cAF| AGF G3 :|
